contributed-vectors/the_battle_cats.svg

<svg width="192" height="192" version="1.1" viewBox="0 0 192 192" xmlns="http://www.w3.org/2000/svg">
 <rect x="20" y="20" width="152" height="152" rx="9.9346" opacity=".63" style="fill:#ff837d;opacity:1"/>
 <path d="m29.936 20c-5.5038 0-9.9355 4.4318-9.9355 9.9355v10.064l76 56-56-76h-10.064zm66.064 76 16-76h-32l16 76zm0 0 76-56v-10.064c0-5.5038-4.4318-9.9355-9.9356-9.9355h-10.064l-56 76zm0 0 76 16v-32l-76 16zm0 0 56 76h10.064c5.5038 0 9.9356-4.4318 9.9356-9.9356v-10.064l-76-56zm0 0-16 76h32l-16-76zm0 0-76 56v10.064c0 5.5038 4.4318 9.9356 9.9355 9.9356h10.064l56-76zm0 0-76-16v32l76-16z" style="fill:#ba6561"/>
 <path d="m63.898 56.002c-2.1685 0.055289-3.8979 1.8288-3.8984 3.998v20c5.03e-4 2.5242 2.31 4.417 4.7852 3.9219l20-4c3.3305-0.66862 4.3646-4.9218 1.7129-7.0449l-20-16c-0.73634-0.58891-1.657-0.8988-2.5996-0.875zm63.984 0c-0.86753 0.02567-1.7032 0.33279-2.3809 0.875l-20 16c-2.6517 2.1231-1.6176 6.3763 1.7129 7.0449l20 4c2.4752 0.49517 4.7847-1.3977 4.7852-3.9219v-20c-3.7e-4 -2.2549-1.8633-4.0639-4.1172-3.998z" style="color-rendering:auto;color:#000000;dominant-baseline:auto;fill:#83868c;font-feature-settings:normal;font-variant-alternates:normal;font-variant-caps:normal;font-variant-ligatures:normal;font-variant-numeric:normal;font-variant-position:normal;image-rendering:auto;isolation:auto;mix-blend-mode:normal;paint-order:stroke fill markers;shape-padding:0;shape-rendering:auto;solid-color:#000000;text-decoration-color:#000000;text-decoration-line:none;text-decoration-style:solid;text-indent:0;text-orientation:mixed;text-transform:none;white-space:normal"/>
 <path d="m128 80v-20l-20 16z" style="fill:#fff;paint-order:stroke fill markers"/>
 <path d="m64 80v-20l20 16z" style="fill:#fff;paint-order:stroke fill markers"/>
 <ellipse cx="96" cy="100" rx="44" ry="36" style="fill:#83868c;paint-order:stroke fill markers"/>
 <ellipse cx="96" cy="100" rx="40" ry="32" style="fill:#fff;paint-order:stroke fill markers"/>
 <circle cx="84" cy="88" r="4" style="fill:#83868c;paint-order:normal"/>
 <circle cx="108" cy="88" r="4" style="fill:#83868c;paint-order:normal"/>
 <path d="m85.424 101.69s0.55067 4.8372 5.2881 4.8814c2.5001 0.0233 5.6949-4.8814 5.6949-4.8814s2.406 5.1095 5.6949 4.8814c4.2849-0.29725 4.3729-4.5763 4.3729-4.5763" style="fill:none;stroke-linecap:round;stroke-linejoin:round;stroke-width:4;stroke:#83868c"/>
 <path d="m92.136 98.441s0.78821 3.2108 4.2712 3.2542c3.1499 0.0393 4.0678-3.1525 4.0678-3.1525" style="fill:none;stroke-linecap:round;stroke-linejoin:round;stroke-width:4;stroke:#83868c"/>
 <path d="m92.339 106.58s-0.1845 8.1356 4.0678 8.1356c4.8625 0 4.0678-8.1356 4.0678-8.1356" style="fill:none;stroke-linecap:round;stroke-linejoin:round;stroke-width:4;stroke:#83868c"/>
</svg>

<svg xmlns="http://www.w3.org/2000/svg" width="192" height="192"><rect width="152" height="152" x="20" y="20" opacity=".63" rx="9.935" style="fill:#ff837d;opacity:1"/><path d="M29.936 20a9.914 9.914 0 0 0-9.935 9.935V40l76 56-56-76H29.937zM96 96l16-76H80l16 76zm0 0 76-56V29.936a9.914 9.914 0 0 0-9.936-9.935H152L96 96zm0 0 76 16V80L96 96zm0 0 56 76h10.064a9.915 9.915 0 0 0 9.936-9.936V152L96 96zm0 0-16 76h32L96 96zm0 0-76 56v10.064A9.915 9.915 0 0 0 29.935 172H40l56-76zm0 0L20 80v32l76-16z" style="fill:#ba6561"/><path d="M63.898 56.002A4 4 0 0 0 60 60v20a4 4 0 0 0 4.785 3.922l20-4c3.33-.669 4.364-4.922 1.713-7.045l-20-16a4 4 0 0 0-2.6-.875zm63.984 0a4 4 0 0 0-2.38.875l-20 16c-2.653 2.123-1.618 6.376 1.712 7.045l20 4A4 4 0 0 0 131.999 80V60a4 4 0 0 0-4.117-3.998z" style="color-rendering:auto;color:#000;dominant-baseline:auto;fill:#83868c;font-feature-settings:normal;font-variant-alternates:normal;font-variant-caps:normal;font-variant-ligatures:normal;font-variant-numeric:normal;font-variant-position:normal;image-rendering:auto;isolation:auto;mix-blend-mode:normal;paint-order:stroke fill markers;shape-padding:0;shape-rendering:auto;solid-color:#000;text-decoration-color:#000;text-decoration-line:none;text-decoration-style:solid;text-indent:0;text-orientation:mixed;text-transform:none;white-space:normal"/><path d="M128 80V60l-20 16zM64 80V60l20 16z" style="fill:#fff;paint-order:stroke fill markers"/><ellipse cx="96" cy="100" rx="44" ry="36" style="fill:#83868c;paint-order:stroke fill markers"/><ellipse cx="96" cy="100" rx="40" ry="32" style="fill:#fff;paint-order:stroke fill markers"/><circle cx="84" cy="88" r="4" style="fill:#83868c;paint-order:normal"/><circle cx="108" cy="88" r="4" style="fill:#83868c;paint-order:normal"/><path d="M85.424 101.69s.55 4.837 5.288 4.881c2.5.024 5.695-4.881 5.695-4.881s2.406 5.11 5.695 4.881c4.285-.297 4.373-4.576 4.373-4.576" style="fill:none;stroke-linecap:round;stroke-linejoin:round;stroke-width:4;stroke:#83868c"/><path d="M92.136 98.441s.788 3.21 4.271 3.254c3.15.04 4.068-3.152 4.068-3.152M92.339 106.58s-.184 8.136 4.068 8.136c4.862 0 4.068-8.136 4.068-8.136" style="fill:none;stroke-linecap:round;stroke-linejoin:round;stroke-width:4;stroke:#83868c"/></svg>
